loleaflet/images/lc_downloadas-rtf.svg

<svg viewBox="0 0 24 24" xmlns="http://www.w3.org/2000/svg"><path d="m5 3v18h14v-14.2705905l-4-3.7294095z" fill="#fafafa"/><path d="m5 2c-.554 0-1 .446-1 1v18c0 .554.446 1 1 1h14c.554 0 1-.446 1-1v-10.109375-3.6412209-.2079239c0-.4506799.09887-.4265951-.604637-1.0675892l-3.307389-3.2370335c-.709525-.7368575-.711223-.7368575-1.094804-.7368575h-.331557-.661613zm0 1h9v4c0 .554.446 1 1 1h4v13h-14z" fill="#3a3a38"/><path d="m15 7h4l-4-4z" fill="#fafafa" fill-rule="evenodd"/><g fill="#1e8bcd" stroke-width="5.01122"><path d="m13 9h5v1h-5z" stroke-width="5.602714"/><path d="m6 15h12l-.000152 1h-11.999848z"/><path d="m6.000114 18h7.999886l-.000114 1h-7.999886z"/><path d="m13 12h5l-.00019 1h-4.99981z" stroke-width="5.602714"/></g><path d="m21.089844 15h-2.65625q-.46875 0-.722657-.214844-.253906-.214843-.351562-.605468l-1.523437-6.2304693h-11.0156255l-3.0664063 6.2304693q-.15625.332031-.4882812.585937-.33203125.234375-.76171875.234375h-2.67578125l13.027344-25.664063h3.496094zm-15.0390628-9.53125h9.1796878l-2.558594-10.5078125q-.09766-.46875-.234375-1.0742187-.117187-.625-.214844-1.328125-.273437.703125-.527343 1.328125-.253907.625-.46875 1.09375z" fill="#3a3a38" transform="matrix(.27234042 0 0 .27234042 6.591489 8.914894)"/></svg>

<?xml version="1.0" encoding="UTF-8" standalone="no"?>
<svg
   xmlns:dc="http://purl.org/dc/elements/1.1/"
   xmlns:cc="http://creativecommons.org/ns#"
   xmlns:rdf="http://www.w3.org/1999/02/22-rdf-syntax-ns#"
   xmlns:svg="http://www.w3.org/2000/svg"
   xmlns="http://www.w3.org/2000/svg"
   xmlns:sodipodi="http://sodipodi.sourceforge.net/DTD/sodipodi-0.dtd"
   xmlns:inkscape="http://www.inkscape.org/namespaces/inkscape"
   viewBox="0 0 24 24"
   version="1.1"
   id="svg8"
   sodipodi:docname="lc_downloadas-rtf.svg"
   inkscape:version="0.92.5 (2060ec1f9f, 2020-04-08)">
  <metadata
     id="metadata14">
    <rdf:RDF>
      <cc:Work
         rdf:about="">
        <dc:format>image/svg+xml</dc:format>
        <dc:type
           rdf:resource="http://purl.org/dc/dcmitype/StillImage" />
        <dc:title></dc:title>
      </cc:Work>
    </rdf:RDF>
  </metadata>
  <defs
     id="defs12" />
  <sodipodi:namedview
     pagecolor="#ffffff"
     bordercolor="#666666"
     borderopacity="1"
     objecttolerance="10"
     gridtolerance="10"
     guidetolerance="10"
     inkscape:pageopacity="0"
     inkscape:pageshadow="2"
     inkscape:window-width="1366"
     inkscape:window-height="700"
     id="namedview10"
     showgrid="true"
     inkscape:zoom="55.625733"
     inkscape:cx="11.037271"
     inkscape:cy="11.340789"
     inkscape:window-x="0"
     inkscape:window-y="0"
     inkscape:window-maximized="1"
     inkscape:current-layer="svg8">
    <inkscape:grid
       type="xygrid"
       id="grid821" />
  </sodipodi:namedview>
  <path
     d="m5 3v18h14v-14.2705905l-4-3.7294095z"
     fill="#fafafa"
     id="path2" />
  <path
     d="m5 2c-.554 0-1 .446-1 1v18c0 .554.446 1 1 1h14c.554 0 1-.446 1-1v-10.109375-3.6412209-.2079239c0-.4506799.09887-.4265951-.604637-1.0675892l-3.307389-3.2370335c-.709525-.7368575-.711223-.7368575-1.094804-.7368575h-.331557-.661613zm0 1h9v4c0 .554.446 1 1 1h4v13h-14z"
     fill="#3a3a38"
     id="path4" />
  <path
     d="m15 7h4l-4-4z"
     fill="#fafafa"
     fill-rule="evenodd"
     id="path6" />
  <g
     style="fill:#1e8bcd;stroke-width:5.01121998"
     id="g16">
    <path
       inkscape:connector-curvature="0"
       d="m 13,9 h 5 v 1 h -5 z"
       id="path8"
       style="stroke-width:5.60271406" />
    <path
       inkscape:connector-curvature="0"
       d="m 6,15 h 12 l -1.52e-4,1 H 6 Z"
       id="path10" />
    <path
       inkscape:connector-curvature="0"
       d="M 6.000114,18 H 14 l -1.14e-4,1 H 6 Z"
       id="path12" />
    <path
       inkscape:connector-curvature="0"
       d="m 13,12 h 5 l -1.9e-4,1 H 13 Z"
       id="path14"
       style="stroke-width:5.60271406" />
  </g>
  <g
     aria-label="A"
     style="font-style:normal;font-weight:normal;font-size:40px;line-height:1.25;font-family:sans-serif;letter-spacing:0px;word-spacing:0px;fill:#3a3a38;fill-opacity:1;stroke:none"
     id="text868"
     transform="matrix(0.27234042,0,0,0.27234042,6.5914894,8.9148937)">
    <path
       d="m 21.089844,15 h -2.65625 q -0.46875,0 -0.722657,-0.214844 -0.253906,-0.214843 -0.351562,-0.605468 L 15.835938,7.9492187 H 4.8203125 L 1.7539062,14.179688 Q 1.5976562,14.511719 1.265625,14.765625 0.93359375,15 0.50390625,15 H -2.171875 l 13.027344,-25.664063 h 3.496094 z M 6.0507812,5.46875 H 15.230469 L 12.671875,-5.0390625 q -0.09766,-0.46875 -0.234375,-1.0742187 -0.117187,-0.625 -0.214844,-1.328125 -0.273437,0.703125 -0.527343,1.328125 -0.253907,0.625 -0.46875,1.09375 z"
       style="font-style:italic;font-variant:normal;font-weight:normal;font-stretch:normal;font-family:Carlito;-inkscape-font-specification:'Carlito Italic';fill:#3a3a38"
       id="path870"
       inkscape:connector-curvature="0" />
  </g>
</svg>
